public/img/9.svg

<svg width="216" height="275" viewBox="0 0 216 275" fill="none" xmlns="http://www.w3.org/2000/svg">
<g opacity="0.7">
<g clip-path="url(#clip0)">
<mask id="mask0" mask-type="alpha" maskUnits="userSpaceOnUse" x="-85" y="-71" width="536" height="535">
<path fill-rule="evenodd" clip-rule="evenodd" d="M8.00432 171.282C5.17914 179.59 2.86317 188.048 1.02641 196.488L109.908 88.7548C107.886 88.7233 105.863 88.6735 103.843 88.6238C100.545 88.5427 97.2549 88.4617 93.9881 88.4609L8.00432 171.282ZM17.0334 149.034L76.7116 89.6954C68.2312 91.173 60.1438 94.2953 52.7796 100.656C37.6676 113.707 25.8804 130.546 17.0334 149.034ZM121.656 88.5955L-2.18862 214.47C-2.99509 220.058 -3.71377 225.733 -4.30296 231.44L144.063 83.9344C136.862 86.9673 129.322 88.1774 121.656 88.5955ZM180.808 47.4022L249.35 -20.7423C246.284 -20.6628 243.155 -20.2931 239.965 -19.6041C217.722 -14.7991 204.357 7.87222 190.606 31.1987C187.4 36.637 184.173 42.1108 180.808 47.4022ZM261.456 -19.5422L-5.35689 243.775C-5.79193 250.306 -6.01969 256.832 -5.97836 263.275L267.852 -17.665C265.757 -18.4232 263.625 -19.0531 261.456 -19.5422ZM275.593 -14.2109L-5.57539 275.162C-5.3828 278.206 -5.1187 281.219 -4.77614 284.194L286.876 -6.78C283.264 -9.62704 279.501 -12.1346 275.593 -14.2109ZM290.599 -3.68215L-3.12658 295.062C-2.28533 299.46 -1.23878 303.741 0.0381839 307.873L301.921 7.81439C298.348 3.67651 294.572 -0.200213 290.599 -3.68215ZM310.938 19.3455L2.94054 316.013C4.87743 320.758 7.1773 325.255 9.88481 329.446L315.897 26.6615C314.305 24.1956 312.652 21.7502 310.938 19.3455ZM319.016 31.6435L16.9635 338.645C17.1084 338.804 17.254 338.961 17.4006 339.118C19.4952 341.364 21.7129 343.429 24.041 345.322L326.367 44.7482C325.996 43.9825 325.609 43.2231 325.204 42.4705C323.276 38.8895 321.212 35.2595 319.016 31.6435ZM329.454 52.3552L28.7722 348.837C33.11 351.776 37.7642 354.207 42.6673 356.183L331.424 59.4214C330.878 57.0226 330.227 54.6655 329.454 52.3552ZM332.995 68.4828L51.1939 359.104C53.8545 359.866 56.5711 360.516 59.3345 361.061L333.957 87.1236C333.992 80.7573 333.745 74.518 332.995 68.4828ZM333.803 94.541L69.954 362.631C74.6944 363.114 79.5311 363.334 84.4224 363.325L332.637 116.522C332.732 114.891 332.829 113.262 332.926 111.634C333.269 105.896 333.611 100.181 333.803 94.541ZM331.881 136.23L96.5994 362.856C104.242 362.295 111.933 361.255 119.518 359.857L332.23 149.389C331.94 145.049 331.847 140.655 331.881 136.23ZM333.163 158.033L139.465 354.906C154.071 349.036 166.147 336.267 178.313 323.402C190.789 310.209 203.359 296.916 218.85 290.862L336.721 173.674C335.217 168.437 333.971 163.215 333.163 158.033ZM339.767 183.406L234.708 287.088C239.63 286.555 244.632 286.515 249.67 286.785L342.562 191.481C341.608 188.792 340.668 186.099 339.767 183.406ZM348.576 208.455L270.179 289.14C272.221 289.455 274.259 289.781 276.29 290.107C278.267 290.423 280.237 290.738 282.199 291.042L352.489 220.915C351.338 216.795 350.003 212.638 348.576 208.455ZM354.702 229.997L293.192 292.559C299.651 293.297 305.955 293.665 312.002 293.245L356.313 249.202C356.702 242.96 356.034 236.54 354.702 229.997Z" fill="white"/>
</mask>
<g mask="url(#mask0)">
<path d="M167.865 210.681H132.027L160.444 164.888C160.323 164.888 159.961 164.948 159.358 165.069C158.875 165.069 158.453 165.069 158.091 165.069C144.576 165.551 133.897 162.233 126.054 155.114C118.211 147.874 114.289 137.557 114.289 124.163C114.289 109.924 118.754 99.1245 127.683 91.7638C136.612 84.4031 148.377 80.7228 162.978 80.7228C177.458 80.7228 189.163 84.4031 198.092 91.7638C207.021 99.1245 211.486 109.924 211.486 124.163C211.486 133.575 208.53 143.168 202.617 152.942L167.865 210.681ZM162.978 108.597C152.239 108.597 146.869 113.785 146.869 124.163C146.869 134.781 152.239 140.091 162.978 140.091C173.597 140.091 178.906 134.781 178.906 124.163C178.906 113.785 173.597 108.597 162.978 108.597Z" fill="white"/>
</g>
</g>
</g>
<defs>
<clipPath id="clip0">
<rect width="215.608" height="274.079" fill="white"/>
</clipPath>
</defs>
</svg>

<svg width="216" height="275" fill="none" xmlns="http://www.w3.org/2000/svg"><g clip-path="url(#clip0)" opacity=".7"><mask id="a" maskUnits="userSpaceOnUse" x="-85" y="-71" width="536" height="535"><path fill-rule="evenodd" clip-rule="evenodd" d="M8.004 171.282c-2.825 8.308-5.14 16.766-6.978 25.206L109.908 88.755a680.037 680.037 0 01-6.065-.131c-3.298-.081-6.588-.162-9.855-.163L8.004 171.282zm9.03-22.248l59.678-59.339c-8.48 1.478-16.568 4.6-23.932 10.961-15.112 13.051-26.9 29.89-35.747 48.378zm104.622-60.438L-2.189 214.47a423.28 423.28 0 00-2.114 16.97L144.063 83.934c-7.201 3.033-14.741 4.243-22.407 4.662zm59.152-41.194l68.542-68.144a50.58 50.58 0 00-9.385 1.138c-22.243 4.805-35.608 27.476-49.359 50.803-3.206 5.438-6.433 10.912-9.798 16.203zm80.648-66.944L-5.357 243.775c-.435 6.531-.663 13.057-.621 19.5l273.83-280.94a53.129 53.129 0 00-6.396-1.877zm14.137 5.331L-5.575 275.162c.192 3.044.456 6.057.799 9.032L286.876-6.78c-3.612-2.847-7.375-5.355-11.283-7.43zm15.006 10.529L-3.127 295.062c.842 4.398 1.888 8.679 3.165 12.811L301.921 7.814c-3.573-4.137-7.349-8.014-11.322-11.496zm20.339 23.027L2.941 316.014c1.936 4.745 4.236 9.242 6.944 13.433L315.897 26.661a192.44 192.44 0 00-4.959-7.316zm8.078 12.299l-302.053 307a66.036 66.036 0 007.077 6.677L326.368 44.748a60.169 60.169 0 00-1.163-2.277 240.777 240.777 0 00-6.188-10.827zm10.438 20.711L28.772 348.837c4.338 2.939 8.992 5.37 13.895 7.346L331.424 59.421a74.035 74.035 0 00-1.97-7.066zm3.541 16.128L51.194 359.104a99.466 99.466 0 008.14 1.957L333.957 87.124c.035-6.367-.212-12.606-.962-18.641zm.808 26.058L69.954 362.631c4.74.483 9.577.703 14.468.694l248.215-246.803c.095-1.631.192-3.26.289-4.888.343-5.738.685-11.453.877-17.093zm-1.922 41.689L96.599 362.856c7.643-.561 15.334-1.601 22.919-2.999L332.23 149.389c-.29-4.34-.383-8.734-.349-13.159zm1.282 21.803L139.465 354.906c14.606-5.87 26.682-18.639 38.848-31.504 12.476-13.193 25.046-26.486 40.537-32.54l117.871-117.188c-1.504-5.237-2.75-10.459-3.558-15.641zm6.604 25.373L234.708 287.088c4.922-.533 9.924-.573 14.962-.303l92.892-95.304a473.6 473.6 0 01-2.795-8.075zm8.809 25.049l-78.397 80.685c2.042.315 4.08.641 6.111.967 1.977.316 3.947.631 5.909.935l70.29-70.127c-1.151-4.12-2.486-8.277-3.913-12.46zm6.126 21.542l-61.51 62.562c6.459.738 12.763 1.106 18.81.686l44.311-44.043c.389-6.242-.279-12.662-1.611-19.205z" fill="#fff"/></mask><g mask="url(#a)"><path d="M167.865 210.681h-35.838l28.417-45.793c-.121 0-.483.06-1.086.181h-1.267c-13.515.482-24.194-2.836-32.037-9.955-7.843-7.24-11.765-17.557-11.765-30.951 0-14.239 4.465-25.038 13.394-32.4 8.929-7.36 20.694-11.04 35.295-11.04 14.48 0 26.185 3.68 35.114 11.04 8.929 7.361 13.394 18.161 13.394 32.4 0 9.412-2.956 19.005-8.869 28.779l-34.752 57.739zm-4.887-102.084c-10.739 0-16.109 5.188-16.109 15.566 0 10.618 5.37 15.928 16.109 15.928 10.619 0 15.928-5.31 15.928-15.928 0-10.378-5.309-15.566-15.928-15.566z" fill="#fff"/></g></g><defs><clipPath id="clip0"><path fill="#fff" d="M0 0h215.608v274.079H0z"/></clipPath></defs></svg>
